public/img/hextacular.svg

<svg xmlns="http://www.w3.org/2000/svg" width="220" height="190" viewBox="0 0 220 190">
  <g fill="#E31337">
    <path d="M157.272625,107.263942 C157.998992,107.263942 158.45262,108.051463 158.088736,108.68075 L111.33839,189.528945 C111.169808,189.820485 110.858795,190 110.522279,190 L81.9443812,190 C81.2180145,190 80.764386,189.212478 81.1282705,188.583191 L127.878616,107.734996 C128.047199,107.443456 128.358211,107.263942 128.694727,107.263942 L157.272625,107.263942 Z M129.477721,84.0901367 C129.141205,84.0901367 128.830192,83.9106218 128.66161,83.6190818 L81.1282705,1.41680884 C80.764386,0.787521511 81.2180145,0 81.9443812,0 L110.522279,0 C110.858795,0 111.169808,0.179514873 111.33839,0.471054898 L158.87173,82.6733278 C159.235614,83.3026152 158.781986,84.0901367 158.055619,84.0901367 L129.477721,84.0901367 Z"/>
    <path d="M135.128406 1.41635199C134.76385.787064228 135.218932 0 135.947343 0L164.565951 0C164.903712 0 165.215845.179714185 165.384888.47151174L219.873006 94.5275799C220.042331 94.8198642 220.042331 95.1801358 219.873006 95.4724201L165.384888 189.528488C165.215845 189.820286 164.903712 190 164.565951 190L135.947343 190C135.218932 190 134.76385 189.212936 135.128406 188.583648L189.342845 95 135.128406 1.41635199zM111.870216 94.5240823C112.042446 94.816752 112.043313 95.1785591 111.872487 95.4720377L57.1252257 189.528106C56.7599958 190.155572 55.8478414 190.157723 55.4796094 189.531986L.129783614 95.4759177C-.0424457704 95.183248-.0433125021 94.8214409.127512727 94.5279623L54.8747743.471894257C55.2400042-.15557243 56.1521586-.157723129 56.5203906.468014185L111.870216 94.5240823z"/>
  </g>
</svg>

<?xml version="1.0" encoding="utf-8"?>
<!-- Generator: Adobe Illustrator 24.1.0, SVG Export Plug-In . SVG Version: 6.00 Build 0)  -->
<svg version="1.1" id="Layer_1" xmlns="http://www.w3.org/2000/svg" xmlns:xlink="http://www.w3.org/1999/xlink" x="0px" y="0px"
	 viewBox="0 0 220 190" style="enable-background:new 0 0 220 190;" xml:space="preserve">
<style type="text/css">
	.st0{fill:#FFFFFF;}
</style>
<g>
	<path class="st0" d="M157.3,107.3c0.7,0,1.2,0.8,0.8,1.4l-46.8,80.8c-0.2,0.3-0.5,0.5-0.8,0.5H81.9c-0.7,0-1.2-0.8-0.8-1.4
		l46.8-80.8c0.2-0.3,0.5-0.5,0.8-0.5H157.3z M129.5,84.1c-0.3,0-0.6-0.2-0.8-0.5L81.1,1.4C80.8,0.8,81.2,0,81.9,0h28.6
		c0.3,0,0.6,0.2,0.8,0.5l47.5,82.2c0.4,0.6-0.1,1.4-0.8,1.4H129.5z"/>
	<path class="st0" d="M135.1,1.4c-0.4-0.6,0.1-1.4,0.8-1.4h28.6c0.3,0,0.6,0.2,0.8,0.5l54.5,94.1c0.2,0.3,0.2,0.7,0,0.9l-54.5,94.1
		c-0.2,0.3-0.5,0.5-0.8,0.5h-28.6c-0.7,0-1.2-0.8-0.8-1.4L189.3,95L135.1,1.4z M111.9,94.5c0.2,0.3,0.2,0.7,0,0.9l-54.7,94.1
		c-0.4,0.6-1.3,0.6-1.6,0L0.1,95.5c-0.2-0.3-0.2-0.7,0-0.9L54.9,0.5c0.4-0.6,1.3-0.6,1.6,0L111.9,94.5z"/>
</g>
</svg>
